source/assets/images/flags/Nepal.svg

<?xml version="1.0" encoding="UTF-8" standalone="no"?>
<svg width="419px" height="552px" viewBox="0 0 419 552" version="1.1" xmlns="http://www.w3.org/2000/svg" xmlns:xlink="http://www.w3.org/1999/xlink" xmlns:sketch="http://www.bohemiancoding.com/sketch/ns">
    <!-- Generator: Sketch 3.3.3 (12072) - http://www.bohemiancoding.com/sketch -->
    <title>Nepal</title>
    <desc>Created with Sketch.</desc>
    <defs></defs>
    <g id="Page-1" stroke="none" stroke-width="1" fill="none" fill-rule="evenodd" sketch:type="MSPage">
        <g id="Nepal" sketch:type="MSLayerGroup">
            <path d="M2.53246753,3.7012987 L2.53246753,549.155844 L411.623377,549.155844 L122.352468,259.884935 L411.623377,259.884935 L2.53246753,3.7012987" id="Fill-1" fill="#0A0A08" sketch:type="MSShapeGroup"></path>
            <path d="M0.520519481,551.167792 L0.520519481,0.067012987 L418.628571,261.897662 L127.210909,261.897662 L416.481818,551.167792 L0.520519481,551.167792 L0.520519481,551.167792 Z M406.765714,547.143117 L117.494805,257.872987 L404.618961,257.872987 L4.54519481,7.33558442 L4.54519481,547.143117 L406.765714,547.143117 L406.765714,547.143117 Z" id="Fill-2" fill="#263875" sketch:type="MSShapeGroup"></path>
            <path d="M2.53246753,3.7012987 L2.53246753,549.155844 L411.623377,549.155844 L122.352468,259.884935 L411.623377,259.884935 L2.53246753,3.7012987" id="Fill-3" fill="#BC242C" sketch:type="MSShapeGroup"></path>
            <path d="M149.71013,206.961818 C166.192987,197.093766 179.16,181.958182 186.284416,163.88026 C186.249351,208.850649 149.784156,245.295584 104.805195,245.295584 C59.827013,245.295584 23.361039,208.850649 23.325974,163.88026 C30.4511688,181.958182 43.4181818,197.093766 59.901039,206.961818 L66.8890909,201.732468 L66.8890909,201.734026 L66.8890909,201.730909 L66.8890909,201.732468 L53.16,191.459221 L69.7636364,187.225714 L69.7690909,187.211688 L61.0223377,172.477403 L77.9945455,174.921818 L77.9945455,174.921039 L75.5501299,157.94961 L90.2844156,166.695584 L90.2984416,166.69013 L94.5319481,150.087273 L104.805195,163.816364 L115.078442,150.087273 L119.311948,166.69013 L119.325974,166.695584 L134.06026,157.94961 L131.616623,174.921039 L131.616623,174.921818 L148.588831,172.477403 L139.842078,187.211688 L139.847532,187.225714 L156.45039,191.459221 L142.721299,201.732468 L142.721299,201.730909 L142.721299,201.734026 L142.722078,201.732468 L149.71013,206.961818" id="Fill-4" fill="#FFFFFF" sketch:type="MSShapeGroup"></path>
            <path d="M104.805195,492.066234 L90.4418182,458.167013 L90.4309091,458.164675 L90.4215584,458.161558 L61.0324675,480.337403 L65.5441558,443.781039 L65.5449351,443.781818 L65.5441558,443.781039 L28.9885714,448.293506 L51.1636364,418.905195 L51.1605195,418.895065 L51.1574026,418.884156 L17.258961,404.520779 L51.1581818,390.156623 L51.1636364,390.135584 L28.9877922,360.747273 L65.5441558,365.258961 L65.5441558,365.25974 L61.0324675,328.703377 L90.4207792,350.878442 L90.4418182,350.872987 L104.805195,316.974545 L119.168571,350.872987 L119.179481,350.876104 L119.18961,350.878442 L148.577922,328.703377 L144.066234,365.25974 L144.065455,365.258961 L144.066234,365.25974 L180.622597,360.747273 L158.447532,390.136364 L158.44987,390.146494 L158.452987,390.156623 L192.351429,404.52 L158.452987,418.884156 L158.44987,418.895065 L158.447532,418.905195 L180.622597,448.293506 L144.066234,443.781818 L144.067013,443.781039 L144.066234,443.781039 L148.578701,480.337403 L119.18961,458.161558 L119.179481,458.164675 L119.169351,458.167013 L104.805195,492.066234" id="Fill-5" fill="#FFFFFF" sketch:type="MSShapeGroup"></path>
        </g>
    </g>
</svg>

<svg width="419" height="552" viewBox="0 0 419 552" xmlns="http://www.w3.org/2000/svg"><title>Nepal</title><g fill="none" fill-rule="evenodd"><path d="M2.532 3.7v545.456h409.09l-289.27-289.27h289.27L2.533 3.7" fill="#0A0A08"/><path d="M.52 551.168V.068l418.11 261.83H127.21l289.272 289.27H.522zm406.246-4.025l-289.27-289.27h287.123L4.544 7.336v539.807h402.22z" fill="#263875"/><path d="M2.532 3.7v545.456h409.09l-289.27-289.27h289.27L2.533 3.7" fill="#BC242C"/><path d="M149.71 206.962c16.483-9.868 29.45-25.004 36.574-43.082-.035 44.97-36.5 81.416-81.48 81.416-44.977 0-81.443-36.445-81.478-81.416 7.125 18.078 20.092 33.214 36.575 43.082l6.99-5.23v.002-.003.002L53.16 191.46l16.604-4.234.005-.014-8.748-14.735 16.973 2.445-2.445-16.972 14.734 8.746.014-.006 4.234-16.603 10.273 13.73 10.273-13.73 4.234 16.603.014.006 14.734-8.746-2.443 16.97v.002l16.972-2.445-8.748 14.735.006.014 16.602 4.233-13.73 10.272v.002l.002-.002 6.988 5.23M104.805 492.066l-14.363-33.9h-.01l-.01-.004-29.39 22.175 4.512-36.556v.002l-36.555 4.512 22.174-29.39-.003-.01-.003-.01L17.26 404.52l33.898-14.363.006-.02-22.176-29.39 36.556 4.512-4.512-36.557 29.39 22.175.02-.005 14.363-33.898 14.364 33.898.01.003.01.002 29.388-22.175-4.512 36.557 36.557-4.513-22.175 29.39.002.01.003.01 33.898 14.363-33.897 14.364-.003.01-.002.01 22.175 29.39-36.557-4.512 4.513 36.555-29.39-22.175-.01.003-.01.002-14.365 33.9" fill="#FFF"/></g></svg>
